!!!COM: Corelli, Arcangelo
!!!OTL: 
!!!ONM: Opus 6, No. 6
!!!OMV: 1
!!!CDT: 1653/2/17/-1713/1/8/
!!!OCY: Italia
**kern	**kern	**kern	**kern	**kern	**kern	**kern
*clefC	*clefG	*clefG	*clefG	*clefC	*clefG	*clefG
*k[b-]	*k[b-]	*k[b-]	*k[b-]	*k[b-]	*k[b-]	*k[b-]
*F:	*F:	*F:	*F:	*F:	*F:	*F:
*M3/4	*M3/4	*M3/4	*M3/4	*M3/4	*M3/4	*M3/4
=1	=1	=1	=1	=1	=1	=1
4F	4f	4a	4cc	4F	4a	4cc
4F	4f	4a	4cc	4F	4a	4cc
4F	4f	4a	4cc	4F	4a	4cc
=2	=2	=2	=2	=2	=2	=2
2E	2c	2g	2cc	2E	2g	2cc
4r	4r	4r	4r	4r	4r	4r
=3	=3	=3	=3	=3	=3	=3
4D	4d	4f	4b-	4D	4f	4b-
4D	4d	4f	4b-	4D	4f	4b-
4G	4d	4f	4b-	4G	4f	4b-
=4	=4	=4	=4	=4	=4	=4
2C	2g	2e	2b-	2C	2e	2b-
4F	4f	4cc	4a	4F	4cc	4a
=5	=5	=5	=5	=5	=5	=5
4BB-	4f	4dd	4a	4BB-	4dd	4a
4.B-	4.d	4.dd	4.g	4.B-	4.dd	4.g
8B-	8d	8dd	8f	8B-	8dd	8f
=6	=6	=6	=6	=6	=6	=6
2B-	2g	2cc	2e	2B-	2cc	2e
4A	4a	4f	4cc	4A	4f	4cc
=7	=7	=7	=7	=7	=7	=7
4B-	4g	4f	8dd	4B-	4f	8dd
.	.	.	8cc	.	.	8cc
4c	4.c	4.f	2b-	4c	4.f	2b-
4C	.	.	.	4C	.	.
.	8c	8e	.	.	8e	.
=8	=8	=8	=8	=8	=8	=8
2.F	2.c	2.f	2.a	2.F	2.f	2.a
=9	=9	=9	=9	=9	=9	=9
4F	4f	4a	4cc	4F	4a	4cc
4.E	4.g	4.g	4.cc#	4.E	4.g	4.cc#
8D	8a	8f	8dd	8D	8f	8dd
=10	=10	=10	=10	=10	=10	=10
2C#	2a	2a	2ee	2C#	2a	2ee
4r	4r	4r	4r	4r	4r	4r
=11	=11	=11	=11	=11	=11	=11
4D	4d	4a	4ff	4D	4a	4ff
4d	4f	4a	4ff	4d	4a	4ff
4c	4a	4a	4ff	4c	4a	4ff
=12	=12	=12	=12	=12	=12	=12
2B	2d	2g	2ff	2B	2g	2ff
4c	4c	4gg	4ee	4c	4gg	4ee
=13	=13	=13	=13	=13	=13	=13
4F	4c	4aa	4ee	4F	4aa	4ee
4.f	4.a	4.aa	4.dd	4.f	4.aa	4.dd
8f	8a	8aa	8cc	8f	8aa	8cc
=14	=14	=14	=14	=14	=14	=14
2f	2dd	2gg	2b	2f	2gg	2b
4e	4cc	4cc	4gg	4e	4cc	4gg
=15	=15	=15	=15	=15	=15	=15
4f	8a	4cc	8aa	4f	4cc	8aa
.	8cc	.	8ee	.	.	8ee
4g	4.g	4.cc	2dd	4g	4.cc	2dd
4G	.	.	.	4G	.	.
.	8g	8b	.	.	8b	.
=16	=16	=16	=16	=16	=16	=16
2.c	2.e	2.cc	2.cc	2.c	2.cc	2.cc
=17	=17	=17	=17	=17	=17	=17
4F	4f	4a	4cc	4F	4a	4cc
4F	4f	4a	4cc	4F	4a	4cc
4F	4f	4a	4cc	4F	4a	4cc
=18	=18	=18	=18	=18	=18	=18
2E	2c	2g	2cc	2E	2g	2cc
4r	4r	4r	4r	4r	4r	4r
=19	=19	=19	=19	=19	=19	=19
4D	4d	4f	4b-	4D	4f	4b-
4D	4d	4f	4b-	4D	4f	4b-
4G	4d	4f	4b-	4G	4f	4b-
=20	=20	=20	=20	=20	=20	=20
2C	2g	2e	2b-	2C	2e	2b-
4F	4f	4cc	4a	4F	4cc	4a
=21	=21	=21	=21	=21	=21	=21
4BB-	4f	4dd	4a	4BB-	4dd	4a
4.B-	4.d	4.dd	4.g	4.B-	4.dd	4.g
8B-	8d	8dd	8f	8B-	8dd	8f
=22	=22	=22	=22	=22	=22	=22
2B-	2g	2cc	2e	2B-	2cc	2e
4A	4a	4f	4cc	4A	4f	4cc
=23	=23	=23	=23	=23	=23	=23
4B-	8g	4f	8dd	4B-	4f	8dd
.	8f	.	8a	.	.	8a
4c	4.c	4.f	2g	4c	4.f	2g
4C	.	.	.	4C	.	.
.	8c	8e	.	.	8e	.
=24	=24	=24	=24	=24	=24	=24
4F	2A	2f	4f	4F	2f	4f
4F	.	.	4a	4F	.	4a
4E	4r	4r	4cc	4E	4r	4cc
=25	=25	=25	=25	=25	=25	=25
4D	4r	4r	4f	4D	4r	4f
4D	4f	4a	4f	4D	4a	4f
4C	4e	4cc	4a	4C	4cc	4a
=26	=26	=26	=26	=26	=26	=26
4BB-	4d	4f	4d	4BB-	4f	4d
4B-	4d	4f	4dd	4B-	4f	4dd
4A	4f	4f	4cc	4A	4f	4cc
=27	=27	=27	=27	=27	=27	=27
2G	2g	2e	2b-	2G	2e	2b-
4F	4a	4f	4a	4F	4f	4a
=28	=28	=28	=28	=28	=28	=28
4BB-	8g	4f	4dd	4BB-	4f	4dd
.	8f	.	.	.	.	.
2C	4.c	4.f	4.g	2C	4.f	4.g
.	8c	8e	8cc	.	8e	8cc
=29	=29	=29	=29	=29	=29	=29
2F	2c	2f	2a	2F	2f	2a
[4E	[4c	[4g	[4cc	[4E	[4g	[4cc
=30	=30	=30	=30	=30	=30	=30
4E]	4c]	4g]	4cc]	4E]	4g]	4cc]
2D	2f	2f	2b	2D	2f	2b
=31	=31	=31	=31	=31	=31	=31
2.C	2.g	2.e	2.cc	2.C	2.e	2.cc
==	==	==	==	==	==	==
*-	*-	*-	*-	*-	*-	*-
!!!RWG: This file only contains pitch and duration data.
!!!RWG: Transposing instruments are not transposed.
!!!RWG: Durations of rests and tied notes may be interpreted.
!!!RWG: Key is interpreted using the Humdrum key tool.
!!!SCA: 
!!!YOR: Chrysander Edition
!!!AGN: concerto grosso
!!!AFT: stage1
!!!ENC: F. Bennion
!!!END: 1997/04/15
!!!AST: baroque
!!!YEC: Copyright 1994, Center for Computer Assisted Research in the Humanities
!!!YEM: Rights to all derivative electronic formats reserved.
!!!YEM: Refer to licensing agreement for further details.
!!!YEN: United States of America
!!!EED: W.B. Hewlett
!!!KEY: 2464332309
!!!EMD: Converted from MuseData to Humdrum Aug 9, 1999, by Bret Aarden using muse2kern.
!!!VTS: 550539660
